X:1
T:184 - Há Livre Perdão
T:Letra: Henrietta E. Blair
T:Trad.: Salomão Luiz Ginsburg (1867-1927)
T:Música: William James Kirkpatrick (1838-1921)
M:6/8
L:1/8
Q:1/4=100
K:E
V:1
"E"GGG AGG | cBE G2G | "B"GFB, F2F | "E"FEB, E2z | GGG AGG | cBE G2z | "B"GFB, "B7"FGF | "E"E3 z3 || "E"EGB edc | cB^A B2B | "B7"BAG A2A | "E"AGF G2z | EGB edc | cB^A B2z | "F#"BFB "F#7"ddc | "B"B3-"B7"A3 || "E"GGG AGG | cBE G2G | "B"GFB, F2F | "E"FEB, E2z | GGG AGG | cBE G2z | "B"GFB, "B7"FGF | E3 z3 |]
w: 1.~Gló-riaa Je-sus, pois há li-vre per-dão! há li-vre per-dão! há li-vre per-dão! Vem, pe-ca-dor, a-cei-tar es-te dom: De Deus um li-vre per-dão! Vem, sim, a-go-raem Je-sus con-fi-ar; Je-sus con-fi-ar; Je-sus con-fi-ar; Vi-da pe-re-ne vais nE-leen-con-trar, E ple-noe li-vre per-dão!_ Cris-toes-tá pron-to pra te per-do-ar! pra te per-do-ar! pra te per-do-ar! Ó pe-ca-dor, por que não a-cei-tar? Em Deus há li-vre per-dão.
w: 2.~Lon-ge de Cris-to só po-des so-frer, só po-des so-frer, só po-des so-frer; Mas nos seus bra-ços há su-mo pra-zer. Em Deus há li-vre per-dão! Tre-vas te cer-cam? Oh! vem pa-raa luz, Oh! vem pa-raa luz, Oh! vem pa-raa luz; Paz, for-çae vi-da te-rás em Je-sus E ple-noe li-vre per-dão!_
w: 3.~Bas-ta pen-sar só no seu gran-dea-mor, no seu gran-dea-mor, no seu gran-dea-mor, No seu so-frer e na mor-te dehor-ror, Pra ver quehá li-vre per-dão! Ar-re-pen-di-do, teen-tre-gaa Je-sus, teen-tre-gaa Je-sus, teen-tre-gaa Je-sus, Que te con-ce-de per-dão pe-la cruz, Sim, ple-noe li-vre per-dão!_  
w: 4.~Sim, há per-dão pa-raa-que-le que crer! a-que-le que crer! a-que-le que crer! E mes-moa-go-ra tu po-des ob-ter De Deus um li-vre per-dão! Cris-to tees-pe-ra, sim, vem co-moes-tás, sim, vem co-moes-tás, sim, vem co-moes-tás; Oh, vem a-go-ra, pois re-ce-be-rás Um ple-noe-li-vre per-dão!_
W:                  
W: 
W: 1. Glória a Jesus, pois há livre perdão!
W: há livre perdão! há livre perdão!
W: Vem, pecador, aceitar este dom:
W: De Deus um livre perdão!
W: Vem, sim, agora em Jesus confiar,
W: Jesus confiar, Jesus confiar;
W: Vida perene vais nEle encontrar,
W: E pleno e livre perdão!
W: 
W:    (Estribilho)
W:    Cristo está pronto pra te perdoar!
W:    Ó pecador, por que não aceitar?
W:    Em Deus há livre perdão.
W: 
W: 2. Longe de Cristo só podes sofrer,
W: só podes sofrer, só podes sofrer,
W: Mas nos seus braços há sumo prazer.
W: Em Deus há livre perdão!
W: Trevas te cercam? Oh! vem para a luz,
W: Oh! vem para a luz, Oh! vem para a luz;
W: Paz, força e vida terás em Jesus
W: E pleno e livre perdão!
W: 
W: 
W: 
W: 3. Basta pensar só no seu grande amor,
W: no seu grande amor, no seu grande amor,
W: No seu sofrer e na morte de horror,
W: Pra ver que há livre perdão!
W: Arrependido, te entrega a Jesus,
W: te entrega a Jesus, te entrega a Jesus,
W: Que te concede perdão pela cruz,
W: Sim, pleno e livre perdão!
W: 
W: 4. Sim, há perdão para aquele que crer,
W: aquele que crer, aquele que crer!
W: E mesmo agora tu podes obter
W: De Deus um livre perdão!
W: Cristo te espera, sim, vem como estás,
W: sim, vem como estás, sim, vem como estás;
W: Oh, vem agora, pois receberás
W: Um pleno e livre perdão!
W: 
W: 
W: 





